public/yanse.svg

<svg width="103" height="143" fill="none" xmlns="http://www.w3.org/2000/svg"><circle cx="48.5" cy="39.5" r="39.5" fill="#3AC948"/><circle cx="63.5" cy="78.5" r="39.5" fill="#6381CE"/><circle cx="48.5" cy="103.5" r="39.5" fill="#D35EC1"/><circle cx="24.5" cy="53.5" r="24.5" fill="#E65959"/><circle cx="24.5" cy="96.5" r="24.5" fill="#D0E64D"/><path d="M13.83 49.69v2.4c0 2.6-.19 5.07-.57 7.41-.38 2.32-1.2 4.4-2.46 6.24l-.39-.36c.74-1.88 1.21-3.86 1.41-5.94.2-2.08.3-4.53.3-7.35v-2.13c0-.94-.04-1.7-.12-2.28l1.41.75-.27-.45c1.24-.58 2.38-1.25 3.42-2.01-.98-.64-1.99-1.2-3.03-1.68l.24-.39c1.6.28 2.94.66 4.02 1.14.6-.52 1.13-1.03 1.59-1.53h-3.27c-1.42.02-2.92.16-4.5.42l-.78-1.53c1.02.12 2.26.2 3.72.24h1.74c0-1.52-.07-2.76-.21-3.72 1.04.32 1.76.58 2.16.78.42.18.63.34.63.48 0 .1-.09.2-.27.3l-.54.33v1.83h2.7l.6-.84c.08-.1.17-.22.27-.36.12-.16.22-.28.3-.36.08-.08.16-.12.24-.12.12 0 .36.15.72.45.36.28.69.59.99.93.32.32.48.55.48.69-.06.32-.3.48-.72.48h-3.45l1.56.96c-.12.18-.29.27-.51.27l-.48-.06c-.3.26-.81.65-1.53 1.17.5.34.87.68 1.11 1.02.24.34.36.65.36.93 0 .2-.06.36-.18.48-.12.1-.29.15-.51.15l-.36-.06c-.44-.5-1.08-1.04-1.92-1.62-1.34.7-2.73 1.28-4.17 1.74l.63.3h6.57l.51-.78c.04-.06.11-.17.21-.33.1-.16.19-.27.27-.33.08-.08.16-.12.24-.12.18 0 .56.28 1.14.84.6.54.9.92.9 1.14-.06.32-.3.48-.72.48h-3.18l1.02.84c.64.3.96.54.96.72 0 .08-.11.14-.33.18l-.48.03c-.88.76-1.91 1.49-3.09 2.19s-2.35 1.29-3.51 1.77l-.39-.51c.14-.08.6-.39 1.38-.93.78-.56 1.54-1.23 2.28-2.01.74-.8 1.32-1.56 1.74-2.28h-5.88Zm21.21-10.32c.12 0 .38.16.78.48.4.3.77.63 1.11.99.34.34.51.58.51.72-.06.32-.3.48-.72.48h-5.46c-.64 1.46-1.25 2.63-1.83 3.51h4.02l.45-.63c.06-.06.15-.18.27-.36.14-.18.27-.27.39-.27.2 0 .58.26 1.14.78.58.52.87.89.87 1.11-.2.24-.56.41-1.08.51v6.18c.04 2.48.12 4.83.24 7.05-.14.18-.4.36-.78.54-.36.18-.69.27-.99.27h-.24v-1.05h-6.99v.75c0 .14-.16.29-.48.45-.3.16-.64.24-1.02.24-.14 0-.27-.06-.39-.18a.72.72 0 0 1-.15-.42c.14-1.94.23-4.07.27-6.39v-3.51c0-2.52-.13-4.57-.39-6.15l2.31 1.08h1.65l.15-.9.39-2.61h-1.65c-.96.02-1.96.16-3 .42l-.78-1.53c1.1.12 2.43.2 3.99.24h5.97l.6-.9.27-.36c.12-.18.22-.31.3-.39.1-.1.19-.15.27-.15Zm-1.32 10.5v-3.42h-6.99v3.42h6.99Zm-6.99 4.44h6.99v-3.57h-6.99v3.57Zm-5.13.45c.64.3.96.54.96.72 0 .1-.11.15-.33.15l-.51.03c-.94.9-2.06 1.75-3.36 2.55-1.3.8-2.63 1.47-3.99 2.01l-.36-.51c.76-.44 1.47-.92 2.13-1.44.8-.6 1.59-1.33 2.37-2.19.78-.86 1.36-1.66 1.74-2.4l1.35 1.08Zm5.13 4.05h6.99v-3.63h-6.99v3.63Zm-3.99 1.26c-2.46 2.76-5.72 4.77-9.78 6.03l-.27-.57c1.62-.74 3.09-1.62 4.41-2.64.78-.6 1.54-1.36 2.28-2.28.74-.92 1.28-1.77 1.62-2.55l1.5 1.05c.72.3 1.08.54 1.08.72 0 .08-.11.14-.33.18l-.51.06Zm6.27 1.17c.72.34 1.08.6 1.08.78 0 .08-.1.12-.3.12h-.45c-.84.82-2.01 1.62-3.51 2.4-1.48.8-2.96 1.42-4.44 1.86l-.27-.42c.62-.32 1.39-.8 2.31-1.44.86-.58 1.67-1.28 2.43-2.1.78-.82 1.34-1.59 1.68-2.31l1.47 1.11Zm2.28-.6c1.28.4 2.32.87 3.12 1.41.82.54 1.41 1.09 1.77 1.65.36.56.54 1.07.54 1.53 0 .32-.08.58-.24.78-.16.2-.37.3-.63.3-.2 0-.43-.08-.69-.24-.28-.8-.83-1.68-1.65-2.64-.82-.96-1.66-1.8-2.52-2.52l.3-.27Zm.45 29.29c.06-.08.13-.19.21-.33.1-.14.18-.24.24-.3.08-.06.16-.09.24-.09.12 0 .36.14.72.42.38.28.73.59 1.05.93.32.32.48.55.48.69-.1.12-.26.24-.48.36-.22.12-.47.21-.75.27v2.79c.06 2.32.13 4.11.21 5.37-.12.16-.38.33-.78.51-.38.16-.72.24-1.02.24-.14 0-.25-.06-.33-.18a.928.928 0 0 1-.09-.42l.12-.72v-.66H16.38v6.51c0 .56.23.94.69 1.14.48.18 1.23.27 2.25.27h11.52c1.04 0 1.78-.05 2.22-.15.46-.12.8-.37 1.02-.75.18-.32.39-.91.63-1.77.26-.88.48-1.75.66-2.61h.39l.03 4.65c.54.16.89.29 1.05.39.16.1.24.25.24.45 0 .54-.44.94-1.32 1.2-.88.28-2.47.42-4.77.42H19.47c-1.74 0-3.01-.24-3.81-.72-.78-.48-1.17-1.34-1.17-2.58V91.55c-1.26 1.26-2.49 2.28-3.69 3.06l-.36-.39c1.02-.86 2.03-1.91 3.03-3.15s1.92-2.56 2.76-3.96c.52-.86.99-1.82 1.41-2.88.44-1.08.74-2.03.9-2.85 2.02.6 3.03 1.01 3.03 1.23 0 .08-.09.14-.27.18l-.54.12c-.5.94-.94 1.71-1.32 2.31h6.57l.54-.63c.06-.06.14-.15.24-.27.12-.14.22-.24.3-.3.08-.06.16-.09.24-.09.18 0 .57.3 1.17.9.62.58.93.98.93 1.2-.16.16-.54.26-1.14.3-1.66 2-3.04 3.43-4.14 4.29h7.14l.45-.69Zm-8.25.69c.8-1.12 1.63-2.63 2.49-4.53H18.9c-1.1 1.66-2.15 3.03-3.15 4.11l.96.42h6.78Zm-.57.87h-6.54v6.45h6.54v-6.45Zm8.64 6.45v-6.45h-6.78v6.45h6.78Z" fill="#fff"/></svg>

<svg width="103" height="143" viewBox="0 0 103 143" fill="none" xmlns="http://www.w3.org/2000/svg">
<circle cx="48.5" cy="39.5" r="39.5" fill="#3AC948"/>
<circle cx="63.5" cy="78.5" r="39.5" fill="#6381CE"/>
<circle cx="48.5" cy="103.5" r="39.5" fill="#D35EC1"/>
<circle cx="24.5" cy="53.5" r="24.5" fill="#E65959"/>
<circle cx="24.5" cy="96.5" r="24.5" fill="#D0E64D"/>
<path d="M13.83 49.69V52.09C13.83 54.69 13.64 57.16 13.26 59.5C12.88 61.82 12.06 63.9 10.8 65.74L10.41 65.38C11.15 63.5 11.62 61.52 11.82 59.44C12.02 57.36 12.12 54.91 12.12 52.09V49.96C12.12 49.02 12.08 48.26 12 47.68L13.41 48.43L13.14 47.98C14.38 47.4 15.52 46.73 16.56 45.97C15.58 45.33 14.57 44.77 13.53 44.29L13.77 43.9C15.37 44.18 16.71 44.56 17.79 45.04C18.39 44.52 18.92 44.01 19.38 43.51H16.11C14.69 43.53 13.19 43.67 11.61 43.93L10.83 42.4C11.85 42.52 13.09 42.6 14.55 42.64H16.29C16.29 41.12 16.22 39.88 16.08 38.92C17.12 39.24 17.84 39.5 18.24 39.7C18.66 39.88 18.87 40.04 18.87 40.18C18.87 40.28 18.78 40.38 18.6 40.48L18.06 40.81V42.64H20.76L21.36 41.8C21.44 41.7 21.53 41.58 21.63 41.44C21.75 41.28 21.85 41.16 21.93 41.08C22.01 41 22.09 40.96 22.17 40.96C22.29 40.96 22.53 41.11 22.89 41.41C23.25 41.69 23.58 42 23.88 42.34C24.2 42.66 24.36 42.89 24.36 43.03C24.3 43.35 24.06 43.51 23.64 43.51H20.19L21.75 44.47C21.63 44.65 21.46 44.74 21.24 44.74L20.76 44.68C20.46 44.94 19.95 45.33 19.23 45.85C19.73 46.19 20.1 46.53 20.34 46.87C20.58 47.21 20.7 47.52 20.7 47.8C20.7 48 20.64 48.16 20.52 48.28C20.4 48.38 20.23 48.43 20.01 48.43L19.65 48.37C19.21 47.87 18.57 47.33 17.73 46.75C16.39 47.45 15 48.03 13.56 48.49L14.19 48.79H20.76L21.27 48.01C21.31 47.95 21.38 47.84 21.48 47.68C21.58 47.52 21.67 47.41 21.75 47.35C21.83 47.27 21.91 47.23 21.99 47.23C22.17 47.23 22.55 47.51 23.13 48.07C23.73 48.61 24.03 48.99 24.03 49.21C23.97 49.53 23.73 49.69 23.31 49.69H20.13L21.15 50.53C21.79 50.83 22.11 51.07 22.11 51.25C22.11 51.33 22 51.39 21.78 51.43L21.3 51.46C20.42 52.22 19.39 52.95 18.21 53.65C17.03 54.35 15.86 54.94 14.7 55.42L14.31 54.91C14.45 54.83 14.91 54.52 15.69 53.98C16.47 53.42 17.23 52.75 17.97 51.97C18.71 51.17 19.29 50.41 19.71 49.69H13.83ZM35.04 39.37C35.16 39.37 35.42 39.53 35.82 39.85C36.22 40.15 36.59 40.48 36.93 40.84C37.27 41.18 37.44 41.42 37.44 41.56C37.38 41.88 37.14 42.04 36.72 42.04H31.26C30.62 43.5 30.01 44.67 29.43 45.55H33.45L33.9 44.92C33.96 44.86 34.05 44.74 34.17 44.56C34.31 44.38 34.44 44.29 34.56 44.29C34.76 44.29 35.14 44.55 35.7 45.07C36.28 45.59 36.57 45.96 36.57 46.18C36.37 46.42 36.01 46.59 35.49 46.69V52.87C35.53 55.35 35.61 57.7 35.73 59.92C35.59 60.1 35.33 60.28 34.95 60.46C34.59 60.64 34.26 60.73 33.96 60.73H33.72V59.68H26.73V60.43C26.73 60.57 26.57 60.72 26.25 60.88C25.95 61.04 25.61 61.12 25.23 61.12C25.09 61.12 24.96 61.06 24.84 60.94C24.74 60.8 24.69 60.66 24.69 60.52C24.83 58.58 24.92 56.45 24.96 54.13V50.62C24.96 48.1 24.83 46.05 24.57 44.47L26.88 45.55H28.53L28.68 44.65L29.07 42.04H27.42C26.46 42.06 25.46 42.2 24.42 42.46L23.64 40.93C24.74 41.05 26.07 41.13 27.63 41.17H33.6L34.2 40.27C34.26 40.19 34.35 40.07 34.47 39.91C34.59 39.73 34.69 39.6 34.77 39.52C34.87 39.42 34.96 39.37 35.04 39.37ZM33.72 49.87V46.45H26.73V49.87H33.72ZM26.73 54.31H33.72V50.74H26.73V54.31ZM21.6 54.76C22.24 55.06 22.56 55.3 22.56 55.48C22.56 55.58 22.45 55.63 22.23 55.63L21.72 55.66C20.78 56.56 19.66 57.41 18.36 58.21C17.06 59.01 15.73 59.68 14.37 60.22L14.01 59.71C14.77 59.27 15.48 58.79 16.14 58.27C16.94 57.67 17.73 56.94 18.51 56.08C19.29 55.22 19.87 54.42 20.25 53.68L21.6 54.76ZM26.73 58.81H33.72V55.18H26.73V58.81ZM22.74 60.07C20.28 62.83 17.02 64.84 12.96 66.1L12.69 65.53C14.31 64.79 15.78 63.91 17.1 62.89C17.88 62.29 18.64 61.53 19.38 60.61C20.12 59.69 20.66 58.84 21 58.06L22.5 59.11C23.22 59.41 23.58 59.65 23.58 59.83C23.58 59.91 23.47 59.97 23.25 60.01L22.74 60.07ZM29.01 61.24C29.73 61.58 30.09 61.84 30.09 62.02C30.09 62.1 29.99 62.14 29.79 62.14H29.34C28.5 62.96 27.33 63.76 25.83 64.54C24.35 65.34 22.87 65.96 21.39 66.4L21.12 65.98C21.74 65.66 22.51 65.18 23.43 64.54C24.29 63.96 25.1 63.26 25.86 62.44C26.64 61.62 27.2 60.85 27.54 60.13L29.01 61.24ZM31.29 60.64C32.57 61.04 33.61 61.51 34.41 62.05C35.23 62.59 35.82 63.14 36.18 63.7C36.54 64.26 36.72 64.77 36.72 65.23C36.72 65.55 36.64 65.81 36.48 66.01C36.32 66.21 36.11 66.31 35.85 66.31C35.65 66.31 35.42 66.23 35.16 66.07C34.88 65.27 34.33 64.39 33.51 63.43C32.69 62.47 31.85 61.63 30.99 60.91L31.29 60.64ZM31.74 89.93C31.8 89.85 31.87 89.74 31.95 89.6C32.05 89.46 32.13 89.36 32.19 89.3C32.27 89.24 32.35 89.21 32.43 89.21C32.55 89.21 32.79 89.35 33.15 89.63C33.53 89.91 33.88 90.22 34.2 90.56C34.52 90.88 34.68 91.11 34.68 91.25C34.58 91.37 34.42 91.49 34.2 91.61C33.98 91.73 33.73 91.82 33.45 91.88V94.67C33.51 96.99 33.58 98.78 33.66 100.04C33.54 100.2 33.28 100.37 32.88 100.55C32.5 100.71 32.16 100.79 31.86 100.79C31.72 100.79 31.61 100.73 31.53 100.61C31.47 100.49 31.44 100.35 31.44 100.19C31.44 100.19 31.48 99.95 31.56 99.47V98.81H16.38V105.32C16.38 105.88 16.61 106.26 17.07 106.46C17.55 106.64 18.3 106.73 19.32 106.73H30.84C31.88 106.73 32.62 106.68 33.06 106.58C33.52 106.46 33.86 106.21 34.08 105.83C34.26 105.51 34.47 104.92 34.71 104.06C34.97 103.18 35.19 102.31 35.37 101.45H35.76L35.79 106.1C36.33 106.26 36.68 106.39 36.84 106.49C37 106.59 37.08 106.74 37.08 106.94C37.08 107.48 36.64 107.88 35.76 108.14C34.88 108.42 33.29 108.56 30.99 108.56H19.47C17.73 108.56 16.46 108.32 15.66 107.84C14.88 107.36 14.49 106.5 14.49 105.26V91.55C13.23 92.81 12 93.83 10.8 94.61L10.44 94.22C11.46 93.36 12.47 92.31 13.47 91.07C14.47 89.83 15.39 88.51 16.23 87.11C16.75 86.25 17.22 85.29 17.64 84.23C18.08 83.15 18.38 82.2 18.54 81.38C20.56 81.98 21.57 82.39 21.57 82.61C21.57 82.69 21.48 82.75 21.3 82.79L20.76 82.91C20.26 83.85 19.82 84.62 19.44 85.22H26.01L26.55 84.59C26.61 84.53 26.69 84.44 26.79 84.32C26.91 84.18 27.01 84.08 27.09 84.02C27.17 83.96 27.25 83.93 27.33 83.93C27.51 83.93 27.9 84.23 28.5 84.83C29.12 85.41 29.43 85.81 29.43 86.03C29.27 86.19 28.89 86.29 28.29 86.33C26.63 88.33 25.25 89.76 24.15 90.62H31.29L31.74 89.93ZM23.49 90.62C24.29 89.5 25.12 87.99 25.98 86.09H18.9C17.8 87.75 16.75 89.12 15.75 90.2L16.71 90.62H23.49ZM22.92 91.49H16.38V97.94H22.92V91.49ZM31.56 97.94V91.49H24.78V97.94H31.56Z" fill="white"/>
</svg>
